svgs/thin/wallet.svg

<svg xmlns="http://www.w3.org/2000/svg" viewBox="0 0 512 512"><!-- Font Awesome Pro 6.0.0-alpha2 by @fontawesome - https://fontawesome.com License - https://fontawesome.com/license (Commercial License) --><path d="M440 112H72C67.594 112 64 115.594 64 120S67.594 128 72 128H440C470.875 128 496 153.125 496 184V408C496 438.875 470.875 464 440 464H72C41.125 464 16 438.875 16 408V104C16 73.125 41.125 48 72 48H472C476.406 48 480 44.406 480 40S476.406 32 472 32H72C32.312 32 0 64.312 0 104V408C0 447.688 32.312 480 72 480H440C479.688 480 512 447.688 512 408V184C512 144.312 479.688 112 440 112ZM440 296C440 273.938 422.062 256 400 256S360 273.938 360 296S377.938 336 400 336S440 318.062 440 296ZM376 296C376 282.781 386.781 272 400 272S424 282.781 424 296S413.219 320 400 320S376 309.219 376 296Z"/></svg>

<svg xmlns="http://www.w3.org/2000/svg" viewBox="0 0 512 512"><!--! Font Awesome Pro 6.0.0-alpha3 by @fontawesome - https://fontawesome.com License - https://fontawesome.com/license (Commercial License) --><path d="M440 112H72C67.59 112 64 115.6 64 120S67.59 128 72 128h368c30.88 0 56 25.12 56 56v224c0 30.88-25.12 56-56 56H72c-30.88 0-56-25.12-56-56v-304c0-30.88 25.12-56 56-56h400C476.4 48 480 44.41 480 40S476.4 32 472 32H72C32.31 32 0 64.31 0 104v304C0 447.7 32.31 480 72 480h368c39.69 0 72-32.31 72-72v-224C512 144.3 479.7 112 440 112zM440 296C440 273.9 422.1 256 400 256s-40 17.94-40 40s17.94 40 40 40S440 318.1 440 296zM376 296c0-13.22 10.78-24 24-24s24 10.78 24 24S413.2 320 400 320S376 309.2 376 296z"/></svg>
